X:69
M:6/8
L:1/8
Q:3/8=100
K:F
|:G|c=Bc Gce|dcd Gdf|gfe dc=B|cdc BAG|F2 G AFC|Ddc BAG|F3 F2:|

